svgs/sharp-regular/share-from-square.svg

<svg xmlns="http://www.w3.org/2000/svg" viewBox="0 0 576 512"><!--! Font Awesome Pro 6.6.0 by @fontawesome - https://fontawesome.com License - https://fontawesome.com/license (Commercial License) Copyright 2024 Fonticons, Inc. --><path d="M400 240l0-48-48 0-16 0-33.5 0c-54.1 0-100.2 33.9-118.3 81.6C179 263.4 176 252.3 176 240c0-61.9 50.1-112 112-112l64 0 48 0 0-48 0-12.1L492.1 160 400 252.1l0-12.1zM224 318.5c0-1.2 0-2.3 .1-3.4c1.8-41.8 36.2-75.1 78.5-75.1l1.5 0 32 0 16 0 0 32 0 16 0 32 48 0L526.1 193.9 560 160l-33.9-33.9L400 0 352 0l0 32 0 16 0 32-48 0-16 0c-88.4 0-160 71.6-160 160c0 44.7 23.3 77.4 50 100.3c35.9 30.8 78 43.7 78 43.7s-32-26.2-32-65.5zM24 32L0 32 0 56 0 488l0 24 24 0 432 0 24 0 0-24 0-104 0-24-48 0 0 24 0 80L48 464 48 80l88 0 24 0 0-48-24 0L24 32z"/></svg>

<svg xmlns="http://www.w3.org/2000/svg" viewBox="0 0 576 512"><!--! Font Awesome Pro 6.4.0 by @fontawesome - https://fontawesome.com License - https://fontawesome.com/license (Commercial License) Copyright 2023 Fonticons, Inc. --><path d="M400 240V192H352 336 302.5c-54.1 0-100.2 33.9-118.3 81.6C179 263.4 176 252.3 176 240c0-61.9 50.1-112 112-112h64 48V80 67.9L492.1 160 400 252.1V240zM224 318.5c0-1.2 0-2.3 .1-3.4c1.8-41.8 36.2-75.1 78.5-75.1H304h32 16v32 16 32h48L526.1 193.9 560 160l-33.9-33.9L400 0H352V32 48 80H304 288c-88.4 0-160 71.6-160 160c0 44.7 23.3 77.4 50 100.3c35.9 30.8 78 43.7 78 43.7s-32-26.2-32-65.5zM24 32H0V56 488v24H24 456h24V488 384 360H432v24 80H48V80h88 24V32H136 24z"/></svg>
